images/icon-email.svg

<svg fill="none" height="23" viewBox="0 0 30 23" width="30" xmlns="http://www.w3.org/2000/svg"><path d="m28.1651.111973c-.2402-.0743559-.4951-.111973-.7651-.111973h-24.80002c-.27 0-.52494.0376171-.76518.111973-1.069273.32209-1.8348 1.305057-1.8348 2.488067v17.80006c0 .7194.283301 1.3647.745605 1.8325.016231.0242.033985.047.054375.0674.129786.1168.26982.2198.41719.3088.36656.2279.79558.367 1.25883.3881.0413.002.08261.0031.12392.0031h24.79998c.0413 0 .0827-.0011.1239-.0031 1.3912-.0633 2.4762-1.1885 2.4762-2.5969v-17.79996c0-1.18301-.7656-2.165977-1.8349-2.488067zm-10.2084 11.831827 10.8475-10.12435c.1251.2294.1958.49483.1958.78053v17.80002c0 .3179-.0876.6107-.2403.8566zm9.4433-10.94378c.0294 0 .058.00082.0861.00223.014.0007.0278.00199.0417.00304.015.00112.0302.00205.045.00364.0072.00076.0143.00181.0214.00263.1646.01987.3104.06574.4558.13852l-11.0128 10.29762c-.065.023-.1283.0582-.1872.1024l-.4.3499c-.85.8-2.15.8-3 0l-.0541-.0472-11.4459-10.70278c.14543-.07272.29115-.11865.4558-.13852.00715-.00082.01418-.00187.02139-.00263.01476-.00159.03-.00246.04511-.00364.01389-.00105.02766-.00234.04166-.00304.02807-.00141.05667-.002229.08608-.002229h24.79996zm-26.19338 20.19948c-.13166-.2337-.2066-.5058-.2066-.7995v-17.79996c0-.2857.07078-.55113.19588-.78053l10.7994 10.07949zm1.39336.8005c-.16219 0-.32437-.033-.48662-.0721-.03522-.0107-.06973-.023-.10377-.0361l10.76251-9.2677.0279.026c.2061.1743.4221.3233.6467.4458 1.1812.677 2.7365.5287 3.7534-.4458l.0518-.0484 10.7386 9.2901c-.0341.0131-.0685.0254-.1038.0362-.1622.0391-.3244.0721-.4866.0721h-24.80012z" fill="#000"/></svg>

<svg width="30" height="23" viewBox="0 0 30 23" fill="none" xmlns="http://www.w3.org/2000/svg">
<path d="M28.1651 0.111973C27.9249 0.0376171 27.67 0 27.4 0H2.59998C2.32998 0 2.07504 0.0376171 1.8348 0.111973C0.765527 0.434063 0 1.41703 0 2.60004V20.4001C0 21.1195 0.283301 21.7648 0.745605 22.2326C0.761836 22.2568 0.77959 22.2796 0.79998 22.3C0.929766 22.4168 1.0698 22.5198 1.21717 22.6088C1.58373 22.8367 2.01275 22.9758 2.476 22.9969C2.5173 22.9989 2.55861 23 2.59992 23H27.3999C27.4412 23 27.4826 22.9989 27.5238 22.9969C28.915 22.9336 30 21.8084 30 20.4V2.60004C30 1.41703 29.2344 0.434063 28.1651 0.111973ZM17.9567 11.9438L28.8042 1.81945C28.9293 2.04885 29 2.31428 29 2.59998V20.4C29 20.7179 28.9124 21.0107 28.7597 21.2566L17.9567 11.9438ZM27.4 1.00002C27.4294 1.00002 27.458 1.00084 27.4861 1.00225C27.5001 1.00295 27.5139 1.00424 27.5278 1.00529C27.5428 1.00641 27.558 1.00734 27.5728 1.00893C27.58 1.00969 27.5871 1.01074 27.5942 1.01156C27.7588 1.03143 27.9046 1.0773 28.05 1.15008L17.0372 11.4477C16.9722 11.4707 16.9089 11.5059 16.85 11.5501L16.45 11.9C15.6 12.7 14.3 12.7 13.45 11.9L13.3959 11.8528L1.95 1.15002C2.09543 1.0773 2.24115 1.03137 2.4058 1.0115C2.41295 1.01068 2.41998 1.00963 2.42719 1.00887C2.44195 1.00728 2.45719 1.00641 2.4723 1.00523C2.48619 1.00418 2.49996 1.00289 2.51396 1.00219C2.54203 1.00078 2.57063 0.999961 2.60004 0.999961H27.4V1.00002ZM1.20662 21.1995C1.07496 20.9658 1.00002 20.6937 1.00002 20.4V2.60004C1.00002 2.31434 1.0708 2.04891 1.1959 1.81951L11.9953 11.899L1.20662 21.1995ZM2.59998 22C2.43779 22 2.27561 21.967 2.11336 21.9279C2.07814 21.9172 2.04363 21.9049 2.00959 21.8918L12.7721 12.6241L12.8 12.6501C13.0061 12.8244 13.2221 12.9734 13.4467 13.0959C14.6279 13.7729 16.1832 13.6246 17.2001 12.6501L17.2519 12.6017L27.9905 21.8918C27.9564 21.9049 27.922 21.9172 27.8867 21.928C27.7245 21.9671 27.5623 22.0001 27.4001 22.0001H2.59998V22Z" fill="black"/>
</svg>
